images/tags-icons/beard-icon.svg

<svg width="23" height="21" viewBox="0 0 23 21" fill="none" xmlns="http://www.w3.org/2000/svg">
<path d="M22.729 0H22.6248C21.5827 3.26733 21.3117 7.24753 18.4563 8.76238C17.9248 7.33663 16.6117 6.68317 15.1319 6.05941C14.2137 5.54245 13.2146 5.1681 12.1722 4.9505C11.9375 4.91898 11.6986 4.96438 11.4948 5.07921C11.2939 4.9666 11.059 4.92128 10.8278 4.9505C9.78903 5.16911 8.79349 5.54343 7.87857 6.05941C6.38831 6.68317 5.08564 7.33663 4.55415 8.76238C1.67784 7.24753 1.40689 3.26733 0.37517 0H0.270956C0.151798 0.322296 0.0611651 0.653478 0 0.990099C0.0488585 5.03502 0.334149 9.07425 0.854554 13.0891C1.40689 15.7624 3.57454 17.6832 5.67966 18.9505C7.14907 19.802 9.48346 21 11.4635 21C13.4436 21 15.8405 19.802 17.3203 18.9505C19.4046 17.6832 21.5827 15.7624 22.1454 13.0891C22.6659 9.07425 22.9511 5.03502 23 0.990099C22.9388 0.653478 22.8482 0.322296 22.729 0V0ZM16.4762 11.8812C16.4165 12.244 16.2403 12.5805 15.9717 12.8445C15.7031 13.1086 15.3552 13.2874 14.9755 13.3564C13.6416 13.4257 12.9642 11.4851 11.4635 11.495C9.96285 11.505 9.28546 13.4257 7.95152 13.3564C7.57761 13.282 7.23655 13.1008 6.97396 12.8371C6.71137 12.5735 6.53977 12.24 6.4821 11.8812C6.43201 11.4544 6.47261 11.0225 6.6015 10.6109C6.73039 10.1993 6.94495 9.81649 7.23244 9.48515C7.72225 9.0297 8.49343 9.08911 9.31672 8.9802C10.102 8.92852 10.8515 8.64853 11.4635 8.17822C12.0784 8.66131 12.8356 8.95182 13.6312 9.0099C14.4649 9.11881 15.2361 9.05941 15.7155 9.51485C16.0064 9.83949 16.2262 10.216 16.3622 10.6223C16.4982 11.0286 16.5476 11.4565 16.5075 11.8812H16.4762Z" fill="#826550"/>
</svg>

<svg width="23" height="21" fill="none" xmlns="http://www.w3.org/2000/svg"><path d="M22.73 0h-.1c-1.05 3.27-1.32 7.25-4.17 8.76-.54-1.42-1.85-2.08-3.33-2.7-.92-.52-1.92-.9-2.96-1.1-.23-.04-.47 0-.68.12-.2-.11-.43-.16-.66-.13-1.04.22-2.04.6-2.95 1.1-1.5.63-2.8 1.29-3.33 2.71C1.68 7.25 1.41 3.26.38 0h-.1A5.9 5.9 0 0 0 0 .99c.05 4.05.33 8.08.85 12.1.56 2.67 2.72 4.6 4.83 5.86 1.47.85 3.8 2.05 5.78 2.05 1.98 0 4.38-1.2 5.86-2.05 2.08-1.27 4.26-3.19 4.83-5.86.52-4.02.8-8.05.85-12.1a5.9 5.9 0 0 0-.27-.99Zm-6.25 11.88c-.06.36-.24.7-.5.96a1.9 1.9 0 0 1-1 .52c-1.34.07-2.02-1.87-3.52-1.87-1.5.02-2.17 1.94-3.5 1.87a1.9 1.9 0 0 1-.99-.52c-.26-.27-.43-.6-.49-.96a3.05 3.05 0 0 1 .75-2.4c.5-.45 1.26-.4 2.09-.5a3.95 3.95 0 0 0 2.14-.8c.62.48 1.38.77 2.17.83.83.1 1.6.05 2.09.5a3.17 3.17 0 0 1 .79 2.37h-.03Z" fill="#826550"/></svg>
